; G-Code generated by Simplify3D(R) Version 3.1.1
; Feb 20, 2017 at 3:31:27 PM
; Settings Summary
;   processName,1_solid
;   applyToModels,testbar01
;   profileName,fb_solid (modified)
;   profileVersion,2016-02-11 09:36:35
;   baseProfile,Ultimaker 1 (modified)
;   printMaterial,
;   printQuality,
;   printExtruders,
;   extruderName,Primary Extruder
;   extruderToolheadNumber,0
;   extruderDiameter,0.6
;   extruderAutoWidth,0
;   extruderWidth,0.7
;   extrusionMultiplier,1
;   extruderUseRetract,0
;   extruderRetractionDistance,4.5
;   extruderExtraRestartDistance,0
;   extruderRetractionZLift,0
;   extruderRetractionSpeed,2100
;   extruderUseCoasting,1
;   extruderCoastingDistance,0.5
;   extruderUseWipe,1
;   extruderWipeDistance,1
;   primaryExtruder,0
;   layerHeight,0.3
;   topSolidLayers,6
;   bottomSolidLayers,6
;   perimeterOutlines,30
;   printPerimetersInsideOut,1
;   startPointOption,2
;   startPointOriginX,0
;   startPointOriginY,0
;   startPointOriginZ,300
;   sequentialIslands,1
;   spiralVaseMode,0
;   firstLayerHeightPercentage,100
;   firstLayerWidthPercentage,100
;   firstLayerUnderspeed,1
;   useRaft,0
;   raftExtruder,0
;   raftLayers,3
;   raftOffset,3
;   raftSeparationDistance,0.14
;   raftInfill,85
;   disableRaftBaseLayers,0
;   useSkirt,0
;   skirtExtruder,0
;   skirtLayers,1
;   skirtOutlines,5
;   skirtOffset,0
;   usePrimePillar,0
;   primePillarExtruder,999
;   primePillarWidth,12
;   primePillarLocation,7
;   primePillarSpeedMultiplier,1
;   useOozeShield,0
;   oozeShieldExtruder,999
;   oozeShieldOffset,2
;   oozeShieldOutlines,1
;   oozeShieldSidewallShape,1
;   oozeShieldSidewallAngle,30
;   oozeShieldSpeedMultiplier,1
;   infillExtruder,0
;   internalInfillPattern,Rectilinear
;   externalInfillPattern,Rectilinear
;   infillPercentage,20
;   outlineOverlapPercentage,25
;   infillExtrusionWidthPercentage,100
;   minInfillLength,1
;   infillLayerInterval,1
;   infillAngles,45,-45
;   overlapInfillAngles,0
;   generateSupport,0
;   supportExtruder,0
;   supportInfillPercentage,25
;   supportExtraInflation,0
;   denseSupportLayers,0
;   denseSupportInfillPercentage,70
;   supportLayerInterval,1
;   supportHorizontalPartOffset,0.3
;   supportUpperSeparationLayers,1
;   supportLowerSeparationLayers,1
;   supportType,0
;   supportGridSpacing,4
;   maxOverhangAngle,45
;   supportAngles,45,-45
;   temperatureName,Primary Extruder,Bed
;   temperatureNumber,0,2
;   temperatureSetpointCount,1,1
;   temperatureSetpointLayers,1,1
;   temperatureSetpointTemperatures,210,60
;   temperatureStabilizeAtStartup,1,1
;   temperatureHeatedBed,0,1
;   temperatureRelayBetweenLayers,0,0
;   temperatureRelayBetweenLoops,0,0
;   fanLayers,1,6,16
;   fanSpeeds,0,50,80
;   blipFanToFullPower,0
;   adjustSpeedForCooling,1
;   minSpeedLayerTime,5
;   minCoolingSpeedSlowdown,40
;   increaseFanForCooling,1
;   minFanLayerTime,7
;   maxCoolingFanSpeed,100
;   increaseFanForBridging,1
;   bridgingFanSpeed,100
;   use5D,1
;   relativeEdistances,0
;   allowEaxisZeroing,0
;   independentExtruderAxes,0
;   includeM10123,0
;   stickySupport,1
;   applyToolheadOffsets,0
;   gcodeXoffset,0
;   gcodeYoffset,0
;   gcodeZoffset,0
;   overrideMachineDefinition,1
;   machineTypeOverride,0
;   strokeXoverride,210
;   strokeYoverride,210
;   strokeZoverride,205
;   originOffsetXoverride,0
;   originOffsetYoverride,0
;   originOffsetZoverride,0
;   homeXdirOverride,-1
;   homeYdirOverride,-1
;   homeZdirOverride,-1
;   flipXoverride,1
;   flipYoverride,-1
;   flipZoverride,1
;   toolheadOffsets,0,0|0,0|0,0|0,0|0,0|0,0
;   overrideFirmwareConfiguration,1
;   firmwareTypeOverride,RepRap (Marlin/Repetier/Sprinter)
;   GPXconfigOverride,r2
;   baudRateOverride,250000
;   overridePrinterModels,1
;   printerModelsOverride
;   startingGcode,G28 X0 Y0 ;move XY to min endstop,G28 Z0 ;move Z to min endstops,G1 Z15.0 F1000 ;move the platform down 15mm,G92 E0                  ;zero the extruded length,G1 F200 E9              ;extrude 9mm of feed stock,G92 E0                  ;zero the extruded length again,G1 Y160 F500 ;move away from bed clip
;   layerChangeGcode,
;   retractionGcode,
;   toolChangeGcode,
;   endingGcode,;End GCode,;G91                                    ;relative positioning,;G1 E-1 F300                            ;retract the filament a bit before lifting the nozzle to release some of the pressure,;G1 Z+15 E-2 X-20 Y-20 F3000 ;move Z up a bit and retract filament even more,G28 X0                              ;move X to min endstops so the head is out of the way,M140 S0                     ;heated bed heater off (if you have it),M104 S0		;extruder heater off,M107		; fans off,M84                         ;steppers off,
;   exportFileFormat,gcode
;   celebration,0
;   celebrationSong,Random Song
;   postProcessing,
;   defaultSpeed,1200
;   outlineUnderspeed,1
;   solidInfillUnderspeed,1
;   supportUnderspeed,0.8
;   rapidXYspeed,1200
;   rapidZspeed,1500
;   minBridgingArea,1
;   bridgingExtraInflation,0.2
;   bridgingExtrusionMultiplier,1.1
;   bridgingSpeedMultiplier,0.5
;   filamentDiameter,1.75
;   filamentPricePerKg,46
;   filamentDensity,1.25
;   useMinPrintHeight,0
;   minPrintHeight,0
;   useMaxPrintHeight,1
;   maxPrintHeight,1.5
;   useDiaphragm,0
;   diaphragmLayerInterval,20
;   robustSlicing,1
;   mergeAllIntoSolid,0
;   onlyRetractWhenCrossingOutline,1
;   retractBetweenLayers,0
;   useRetractionMinTravel,1
;   retractionMinTravel,0.5
;   retractWhileWiping,1
;   onlyWipeOutlines,0
;   avoidCrossingOutline,0
;   maxMovementDetourFactor,1
;   toolChangeRetractionDistance,12
;   toolChangeExtraRestartDistance,-0.5
;   toolChangeRetractionSpeed,600
;   allowThinWallGapFill,1
;   thinWallAllowedOverlapPercentage,25
;   horizontalSizeCompensation,0
G90
M82
M106 S0
M140 S60
M190 S60
M104 S210 T0
M109 S210 T0
G28 X0 Y0 ;move XY to min endstop
G28 Z0 ;move Z to min endstops
G1 Z15.0 F1000 ;move the platform down 15mm
G92 E0                  ;zero the extruded length
G1 F200 E9              ;extrude 9mm of feed stock
G92 E0                  ;zero the extruded length again
G1 Y160 F500 ;move away from bed clip
G1 E-4.5000 F2100
G1 Z0.300 F1500
; layer 1, Z = 0.3
T0
; tool H0.300 W0.700
; inner perimeter
; inner perimeter
; inner perimeter
; inner perimeter
; inner perimeter
; inner perimeter
; inner perimeter
; inner perimeter
; inner perimeter
; inner perimeter
G1 X44.677 Y104.520 F1200
G1 E0.0000 F630
G1 X44.730 Y104.499 E0.0050 F1200
G1 X44.785 Y104.484 E0.0100
G1 X44.841 Y104.474 E0.0150
G1 X45.285 Y104.449 E0.0538
G1 X46.726 Y104.444 E0.1796
G1 X46.958 Y104.550 E0.2019
G1 X163.329 Y104.550 E10.3619
G1 X163.557 Y104.445 E10.3839
G1 X164.715 Y104.449 E10.4850
G1 X165.159 Y104.474 E10.5238
G1 X165.215 Y104.484 E10.5288
G1 X165.270 Y104.499 E10.5338
G1 X165.323 Y104.520 E10.5388
G1 X165.374 Y104.547 E10.5437
G1 X165.421 Y104.579 E10.5487
G1 X165.464 Y104.617 E10.5537
G1 X165.504 Y104.658 E10.5587
G1 X165.538 Y104.704 E10.5637
G1 X165.568 Y104.753 E10.5687
G1 X165.592 Y104.805 E10.5737
G1 X165.610 Y104.859 E10.5787
G1 X165.622 Y104.915 E10.5837
G1 X165.628 Y104.971 E10.5887
G1 X165.628 Y105.029 E10.5937
G1 X165.622 Y105.085 E10.5986
G1 X165.610 Y105.141 E10.6036
G1 X165.592 Y105.195 E10.6086
G1 X165.568 Y105.247 E10.6136
G1 X165.538 Y105.296 E10.6186
G1 X165.504 Y105.342 E10.6236
G1 X165.464 Y105.383 E10.6286
G1 X165.421 Y105.421 E10.6336
G1 X165.374 Y105.453 E10.6386
G1 X165.323 Y105.480 E10.6436
G1 X165.270 Y105.501 E10.6486
G1 X165.215 Y105.516 E10.6536
G1 X165.159 Y105.526 E10.6585
G1 X164.715 Y105.551 E10.6973
G1 X163.528 Y105.555 E10.8010
G1 X163.297 Y105.450 E10.8231
G1 X46.918 Y105.450 E20.9839
G1 X46.689 Y105.556 E21.0060
G1 X45.285 Y105.551 E21.1285
G1 X44.841 Y105.526 E21.1673
G1 X44.785 Y105.516 E21.1723
G1 X44.730 Y105.501 E21.1773
G1 X44.677 Y105.480 E21.1823
G1 X44.626 Y105.453 E21.1873
G1 X44.579 Y105.421 E21.1923
G1 X44.536 Y105.383 E21.1973
G1 X44.496 Y105.342 E21.2023
G1 X44.462 Y105.296 E21.2073
G1 X44.432 Y105.247 E21.2123
G1 X44.408 Y105.195 E21.2173
G1 X44.390 Y105.141 E21.2223
G1 X44.378 Y105.085 E21.2273
G1 X44.372 Y105.029 E21.2322
G1 X44.372 Y104.971 E21.2372
G1 X44.378 Y104.915 E21.2422
G1 X44.381 Y104.900 E21.2435
G1 X44.390 Y104.859 F1200
G1 X44.408 Y104.805 F1200
G1 X44.432 Y104.753 F1200
G1 X44.462 Y104.704 F1200
G1 X44.496 Y104.658 F1200
G1 X44.536 Y104.617 F1200
G1 X44.579 Y104.579 F1200
G1 X44.626 Y104.547 F1200
G1 X44.677 Y104.520 F1200
G1 X44.730 Y104.499 F1200
G1 X44.785 Y104.484 F1200
G1 X44.841 Y104.474 F1200
G1 X45.285 Y104.449 F1200
G1 X46.726 Y104.444 F1200
G1 X46.958 Y104.550 F1200
G1 X47.217 Y104.550 F1200
; inner perimeter
G1 X44.381 Y103.885 F1200
G1 X44.504 Y103.835 E21.2551 F1200
G1 X44.632 Y103.799 E21.2667
G1 X44.763 Y103.778 E21.2783
G1 X45.264 Y103.749 E21.3221
G1 X46.876 Y103.744 E21.4629
G1 X47.110 Y103.850 E21.4853
G1 X163.176 Y103.850 E31.6187
G1 X163.405 Y103.744 E31.6408
G1 X164.736 Y103.749 E31.7569
G1 X165.237 Y103.778 E31.8008
G1 X165.368 Y103.799 E31.8123
G1 X165.496 Y103.835 E31.8240
G1 X165.619 Y103.885 E31.8356
G1 X165.736 Y103.947 E31.8472
G1 X165.846 Y104.022 E31.8588
G1 X165.947 Y104.108 E31.8704
G1 X166.039 Y104.205 E31.8820
G1 X166.119 Y104.311 E31.8936
G1 X166.187 Y104.425 E31.9052
G1 X166.243 Y104.546 E31.9168
G1 X166.285 Y104.672 E31.9284
G1 X166.314 Y104.801 E31.9400
G1 X166.328 Y104.934 E31.9516
G1 X166.328 Y105.066 E31.9632
G1 X166.314 Y105.199 E31.9748
G1 X166.285 Y105.328 E31.9864
G1 X166.243 Y105.454 E31.9980
G1 X166.187 Y105.575 E32.0096
G1 X166.119 Y105.689 E32.0212
G1 X166.039 Y105.795 E32.0328
G1 X165.947 Y105.892 E32.0444
G1 X165.846 Y105.978 E32.0560
G1 X165.736 Y106.053 E32.0676
G1 X165.619 Y106.115 E32.0792
G1 X165.496 Y106.165 E32.0909
G1 X165.368 Y106.201 E32.1025
G1 X165.237 Y106.222 E32.1141
G1 X164.736 Y106.251 E32.1578
G1 X163.377 Y106.255 E32.2765
G1 X163.145 Y106.150 E32.2987
G1 X47.072 Y106.150 E42.4328
G1 X46.842 Y106.256 E42.4550
G1 X45.264 Y106.251 E42.5927
G1 X44.763 Y106.222 E42.6365
G1 X44.632 Y106.201 E42.6481
G1 X44.504 Y106.165 E42.6597
G1 X44.381 Y106.115 E42.6713
G1 X44.264 Y106.053 E42.6829
G1 X44.154 Y105.978 E42.6945
G1 X44.053 Y105.892 E42.7061
G1 X43.961 Y105.795 E42.7177
G1 X43.881 Y105.689 E42.7294
G1 X43.813 Y105.575 E42.7410
G1 X43.757 Y105.454 E42.7526
G1 X43.715 Y105.328 E42.7642
G1 X43.686 Y105.199 E42.7758
G1 X43.672 Y105.066 E42.7874
G1 X43.672 Y104.934 E42.7990
G1 X43.686 Y104.801 E42.8106
G1 X43.715 Y104.672 E42.8222
G1 X43.757 Y104.546 E42.8338
G1 X43.813 Y104.425 E42.8454
G1 X43.881 Y104.311 E42.8570
G1 X43.961 Y104.205 E42.8686
G1 X43.983 Y104.182 E42.8714
G1 X44.053 Y104.108 F1200
G1 X44.154 Y104.022 F1200
G1 X44.264 Y103.947 F1200
G1 X44.381 Y103.885 F1200
G1 X44.504 Y103.835 F1200
G1 X44.632 Y103.799 F1200
G1 X44.763 Y103.778 F1200
G1 X45.264 Y103.749 F1200
G1 X46.876 Y103.744 F1200
G1 X46.930 Y103.768 F1200
; inner perimeter
G1 X44.085 Y103.249 F1200
G1 X44.279 Y103.172 E42.8896 F1200
G1 X44.479 Y103.115 E42.9078
G1 X44.685 Y103.081 E42.9260
G1 X45.243 Y103.049 E42.9748
G1 X47.027 Y103.043 E43.1306
G1 X47.262 Y103.150 E43.1531
G1 X163.022 Y103.150 E53.2599
G1 X163.253 Y103.044 E53.2820
G1 X164.757 Y103.049 E53.4134
G1 X165.315 Y103.081 E53.4621
G1 X165.520 Y103.115 E53.4803
G1 X165.721 Y103.172 E53.4986
G1 X165.915 Y103.249 E53.5168
G1 X166.099 Y103.347 E53.5350
G1 X166.272 Y103.465 E53.5532
G1 X166.430 Y103.600 E53.5714
G1 X166.574 Y103.752 E53.5896
G1 X166.700 Y103.918 E53.6079
G1 X166.807 Y104.097 E53.6261
G1 X166.894 Y104.287 E53.6443
G1 X166.961 Y104.484 E53.6625
G1 X167.006 Y104.688 E53.6807
G1 X167.028 Y104.896 E53.6990
G1 X167.028 Y105.104 E53.7172
G1 X167.006 Y105.312 E53.7354
G1 X166.961 Y105.516 E53.7536
G1 X166.894 Y105.713 E53.7718
G1 X166.807 Y105.903 E53.7900
G1 X166.700 Y106.082 E53.8082
G1 X166.574 Y106.248 E53.8265
G1 X166.430 Y106.400 E53.8447
G1 X166.272 Y106.535 E53.8629
G1 X166.099 Y106.653 E53.8811
G1 X165.915 Y106.751 E53.8993
G1 X165.721 Y106.828 E53.9175
G1 X165.520 Y106.885 E53.9358
G1 X165.315 Y106.919 E53.9540
G1 X164.758 Y106.951 E54.0027
G1 X163.226 Y106.956 E54.1364
G1 X162.994 Y106.850 E54.1587
G1 X47.226 Y106.850 E64.2662
G1 X46.994 Y106.957 E64.2884
G1 X45.243 Y106.951 E64.4413
G1 X44.685 Y106.919 E64.4901
G1 X44.479 Y106.885 E64.5083
G1 X44.279 Y106.828 E64.5265
G1 X44.085 Y106.751 E64.5447
G1 X43.901 Y106.653 E64.5630
G1 X43.728 Y106.535 E64.5812
G1 X43.570 Y106.400 E64.5994
G1 X43.426 Y106.248 E64.6176
G1 X43.300 Y106.082 E64.6358
G1 X43.193 Y105.903 E64.6540
G1 X43.106 Y105.713 E64.6723
G1 X43.039 Y105.516 E64.6905
G1 X42.994 Y105.312 E64.7087
G1 X42.972 Y105.104 E64.7269
G1 X42.972 Y104.896 E64.7451
G1 X42.994 Y104.688 E64.7633
G1 X43.039 Y104.484 E64.7816
G1 X43.106 Y104.287 E64.7998
G1 X43.193 Y104.097 E64.8180
G1 X43.300 Y103.918 E64.8362
G1 X43.426 Y103.752 E64.8544
G1 X43.570 Y103.600 E64.8727
G1 X43.665 Y103.519 E64.8836
G1 X43.728 Y103.465 F1200
G1 X43.901 Y103.347 F1200
G1 X44.085 Y103.249 F1200
G1 X44.279 Y103.172 F1200
G1 X44.479 Y103.115 F1200
G1 X44.685 Y103.081 F1200
G1 X45.243 Y103.049 F1200
G1 X46.630 Y103.044 F1200
; inner perimeter
G1 X43.789 Y102.614 F1200
G1 X44.053 Y102.508 E64.9085 F1200
G1 X44.327 Y102.431 E64.9333
G1 X44.607 Y102.384 E64.9581
G1 X45.222 Y102.349 E65.0119
G1 X47.178 Y102.343 E65.1827
G1 X47.414 Y102.450 E65.2053
G1 X162.869 Y102.450 E75.2854
G1 X163.101 Y102.344 E75.3077
G1 X164.778 Y102.349 E75.4542
G1 X165.393 Y102.384 E75.5079
G1 X165.673 Y102.431 E75.5327
G1 X165.947 Y102.508 E75.5575
G1 X166.211 Y102.614 E75.5824
G1 X166.462 Y102.748 E75.6072
G1 X166.697 Y102.908 E75.6320
G1 X166.913 Y103.092 E75.6569
G1 X167.109 Y103.299 E75.6817
G1 X167.280 Y103.526 E75.7065
G1 X167.427 Y103.769 E75.7314
G1 X167.546 Y104.028 E75.7562
G1 X167.637 Y104.297 E75.7810
G1 X167.698 Y104.575 E75.8059
G1 X167.728 Y104.858 E75.8307
G1 X167.728 Y105.142 E75.8555
G1 X167.698 Y105.425 E75.8803
G1 X167.637 Y105.703 E75.9052
G1 X167.546 Y105.972 E75.9300
G1 X167.427 Y106.231 E75.9548
G1 X167.280 Y106.474 E75.9797
G1 X167.109 Y106.701 E76.0045
G1 X166.913 Y106.908 E76.0293
G1 X166.697 Y107.092 E76.0542
G1 X166.462 Y107.252 E76.0790
G1 X166.211 Y107.386 E76.1038
G1 X165.947 Y107.492 E76.1286
G1 X165.673 Y107.569 E76.1535
G1 X165.393 Y107.616 E76.1783
G1 X164.779 Y107.651 E76.2320
G1 X163.076 Y107.656 E76.3807
G1 X162.842 Y107.550 E76.4031
G1 X47.379 Y107.550 E86.4839
G1 X47.147 Y107.657 E86.5063
G1 X45.222 Y107.651 E86.6743
G1 X44.607 Y107.616 E86.7281
G1 X44.327 Y107.569 E86.7529
G1 X44.053 Y107.492 E86.7777
G1 X43.789 Y107.386 E86.8026
G1 X43.538 Y107.252 E86.8274
G1 X43.303 Y107.092 E86.8522
G1 X43.087 Y106.908 E86.8770
G1 X42.891 Y106.701 E86.9019
G1 X42.720 Y106.474 E86.9267
G1 X42.573 Y106.231 E86.9515
G1 X42.454 Y105.972 E86.9764
G1 X42.363 Y105.703 E87.0012
G1 X42.302 Y105.425 E87.0260
G1 X42.272 Y105.142 E87.0509
G1 X42.272 Y104.858 E87.0757
G1 X42.302 Y104.575 E87.1005
G1 X42.363 Y104.297 E87.1253
G1 X42.454 Y104.028 E87.1502
G1 X42.573 Y103.769 E87.1750
G1 X42.720 Y103.526 E87.1998
G1 X42.891 Y103.299 E87.2247
G1 X43.087 Y103.092 E87.2495
G1 X43.303 Y102.908 E87.2743
G1 X43.360 Y102.869 E87.2803
G1 X43.538 Y102.748 F1200
G1 X43.789 Y102.614 F1200
G1 X44.053 Y102.508 F1200
G1 X44.327 Y102.431 F1200
G1 X44.607 Y102.384 F1200
G1 X45.222 Y102.349 F1200
G1 X46.325 Y102.345 F1200
; inner perimeter
G1 X43.493 Y101.978 F1200
G1 X43.827 Y101.844 E87.3118 F1200
G1 X44.174 Y101.747 E87.3432
G1 X44.529 Y101.687 E87.3747
G1 X45.200 Y101.649 E87.4333
G1 X47.329 Y101.642 E87.6192
G1 X47.566 Y101.750 E87.6419
G1 X162.716 Y101.750 E97.6954
G1 X162.949 Y101.643 E97.7178
G1 X164.800 Y101.649 E97.8794
G1 X165.471 Y101.687 E97.9381
G1 X165.826 Y101.747 E97.9695
G1 X166.173 Y101.844 E98.0009
G1 X166.507 Y101.978 E98.0324
G1 X166.825 Y102.148 E98.0638
G1 X167.122 Y102.350 E98.0953
G1 X167.396 Y102.584 E98.1267
G1 X167.644 Y102.846 E98.1582
G1 X167.861 Y103.133 E98.1896
G1 X168.046 Y103.442 E98.2210
G1 X168.197 Y103.769 E98.2525
G1 X168.312 Y104.110 E98.2839
G1 X168.389 Y104.462 E98.3154
G1 X168.428 Y104.820 E98.3468
