; G-Code generated by Simplify3D(R) Version 3.1.1
; Feb 2, 2017 at 2:28:24 PM
; Settings Summary
;   processName,1_solid
;   applyToModels,testbar01
;   profileName,fb_solid (modified)
;   profileVersion,2016-02-11 09:36:35
;   baseProfile,Ultimaker 1 (modified)
;   printMaterial,
;   printQuality,
;   printExtruders,
;   extruderName,Primary Extruder
;   extruderToolheadNumber,0
;   extruderDiameter,0.6
;   extruderAutoWidth,0
;   extruderWidth,0.7
;   extrusionMultiplier,1
;   extruderUseRetract,0
;   extruderRetractionDistance,4.5
;   extruderExtraRestartDistance,0
;   extruderRetractionZLift,0
;   extruderRetractionSpeed,2100
;   extruderUseCoasting,1
;   extruderCoastingDistance,0.5
;   extruderUseWipe,1
;   extruderWipeDistance,1
;   primaryExtruder,0
;   layerHeight,0.3
;   topSolidLayers,6
;   bottomSolidLayers,6
;   perimeterOutlines,30
;   printPerimetersInsideOut,1
;   startPointOption,2
;   startPointOriginX,0
;   startPointOriginY,0
;   startPointOriginZ,300
;   sequentialIslands,1
;   spiralVaseMode,0
;   firstLayerHeightPercentage,140
;   firstLayerWidthPercentage,140
;   firstLayerUnderspeed,0.35
;   useRaft,0
;   raftExtruder,0
;   raftLayers,3
;   raftOffset,3
;   raftSeparationDistance,0.14
;   raftInfill,85
;   disableRaftBaseLayers,0
;   useSkirt,0
;   skirtExtruder,0
;   skirtLayers,1
;   skirtOutlines,5
;   skirtOffset,0
;   usePrimePillar,0
;   primePillarExtruder,999
;   primePillarWidth,12
;   primePillarLocation,7
;   primePillarSpeedMultiplier,1
;   useOozeShield,0
;   oozeShieldExtruder,999
;   oozeShieldOffset,2
;   oozeShieldOutlines,1
;   oozeShieldSidewallShape,1
;   oozeShieldSidewallAngle,30
;   oozeShieldSpeedMultiplier,1
;   infillExtruder,0
;   internalInfillPattern,Rectilinear
;   externalInfillPattern,Rectilinear
;   infillPercentage,20
;   outlineOverlapPercentage,25
;   infillExtrusionWidthPercentage,100
;   minInfillLength,1
;   infillLayerInterval,1
;   infillAngles,45,-45
;   overlapInfillAngles,0
;   generateSupport,0
;   supportExtruder,0
;   supportInfillPercentage,25
;   supportExtraInflation,0
;   denseSupportLayers,0
;   denseSupportInfillPercentage,70
;   supportLayerInterval,1
;   supportHorizontalPartOffset,0.3
;   supportUpperSeparationLayers,1
;   supportLowerSeparationLayers,1
;   supportType,0
;   supportGridSpacing,4
;   maxOverhangAngle,45
;   supportAngles,45,-45
;   temperatureName,Primary Extruder,Bed
;   temperatureNumber,0,2
;   temperatureSetpointCount,1,1
;   temperatureSetpointLayers,1,1
;   temperatureSetpointTemperatures,210,60
;   temperatureStabilizeAtStartup,1,1
;   temperatureHeatedBed,0,1
;   temperatureRelayBetweenLayers,0,0
;   temperatureRelayBetweenLoops,0,0
;   fanLayers,1,6,16
;   fanSpeeds,0,50,80
;   blipFanToFullPower,0
;   adjustSpeedForCooling,1
;   minSpeedLayerTime,5
;   minCoolingSpeedSlowdown,40
;   increaseFanForCooling,1
;   minFanLayerTime,7
;   maxCoolingFanSpeed,100
;   increaseFanForBridging,1
;   bridgingFanSpeed,100
;   use5D,1
;   relativeEdistances,0
;   allowEaxisZeroing,0
;   independentExtruderAxes,0
;   includeM10123,0
;   stickySupport,1
;   applyToolheadOffsets,0
;   gcodeXoffset,0
;   gcodeYoffset,0
;   gcodeZoffset,0
;   overrideMachineDefinition,1
;   machineTypeOverride,0
;   strokeXoverride,210
;   strokeYoverride,210
;   strokeZoverride,205
;   originOffsetXoverride,0
;   originOffsetYoverride,0
;   originOffsetZoverride,0
;   homeXdirOverride,-1
;   homeYdirOverride,-1
;   homeZdirOverride,-1
;   flipXoverride,1
;   flipYoverride,-1
;   flipZoverride,1
;   toolheadOffsets,0,0|0,0|0,0|0,0|0,0|0,0
;   overrideFirmwareConfiguration,1
;   firmwareTypeOverride,RepRap (Marlin/Repetier/Sprinter)
;   GPXconfigOverride,r2
;   baudRateOverride,250000
;   overridePrinterModels,1
;   printerModelsOverride
;   startingGcode,G28 X0 Y0 ;move XY to min endstop,G28 Z0 ;move Z to min endstops,G1 Z15.0 F1000 ;move the platform down 15mm,G92 E0                  ;zero the extruded length,G1 F200 E9              ;extrude 9mm of feed stock,G92 E0                  ;zero the extruded length again,G1 Y160 F500 ;move away from bed clip
;   layerChangeGcode,
;   retractionGcode,
;   toolChangeGcode,
;   endingGcode,;End GCode,G91                                    ;relative positioning,G1 E-1 F300                            ;retract the filament a bit before lifting the nozzle to release some of the pressure,G1 Z+15 E-2 X-20 Y-20 F3000 ;move Z up a bit and retract filament even more,G28 X0                              ;move X to min endstops so the head is out of the way,M140 S0                     ;heated bed heater off (if you have it),M104 S0		;extruder heater off,M107		; fans off,M84                         ;steppers off,
;   exportFileFormat,gcode
;   celebration,0
;   celebrationSong,Random Song
;   postProcessing,
;   defaultSpeed,1200
;   outlineUnderspeed,1
;   solidInfillUnderspeed,1
;   supportUnderspeed,0.8
;   rapidXYspeed,1200
;   rapidZspeed,1500
;   minBridgingArea,1
;   bridgingExtraInflation,0.2
;   bridgingExtrusionMultiplier,1.1
;   bridgingSpeedMultiplier,0.5
;   filamentDiameter,2.85
;   filamentPricePerKg,46
;   filamentDensity,1.25
;   useMinPrintHeight,0
;   minPrintHeight,0
;   useMaxPrintHeight,1
;   maxPrintHeight,1.5
;   useDiaphragm,0
;   diaphragmLayerInterval,20
;   robustSlicing,1
;   mergeAllIntoSolid,0
;   onlyRetractWhenCrossingOutline,0
;   retractBetweenLayers,1
;   useRetractionMinTravel,1
;   retractionMinTravel,0.5
;   retractWhileWiping,1
;   onlyWipeOutlines,0
;   avoidCrossingOutline,0
;   maxMovementDetourFactor,1
;   toolChangeRetractionDistance,12
;   toolChangeExtraRestartDistance,-0.5
;   toolChangeRetractionSpeed,600
;   allowThinWallGapFill,1
;   thinWallAllowedOverlapPercentage,25
;   horizontalSizeCompensation,0
G90
M82
M106 S0
M140 S60
M190 S60
M104 S210 T0
M109 S210 T0
G28 X0 Y0 ;move XY to min endstop
G28 Z0 ;move Z to min endstops
G1 Z15.0 F1000 ;move the platform down 15mm
G92 E0                  ;zero the extruded length
G1 F200 E9              ;extrude 9mm of feed stock
G92 E0                  ;zero the extruded length again
G1 Y160 F500 ;move away from bed clip
G1 E-4.5000 F2100
G1 Z0.420 F1500
; layer 1, Z = 0.42
T0
; tool H0.420 W0.980
; inner perimeter
; inner perimeter
; inner perimeter
; inner perimeter
; inner perimeter
; inner perimeter
; inner perimeter
; inner perimeter
; inner perimeter
; inner perimeter
; inner perimeter
; inner perimeter
; inner perimeter
; inner perimeter
; inner perimeter
; inner perimeter
G1 X44.618 Y104.393 F1200
G1 E0.0000 F630
G1 X44.685 Y104.366 E0.0047 F420
G1 X44.754 Y104.347 E0.0093
G1 X44.826 Y104.335 E0.0140
G1 X45.281 Y104.309 E0.0434
G1 X46.727 Y104.304 E0.1367
G1 X46.958 Y104.410 E0.1531
G1 X163.298 Y104.410 E7.6594
G1 X163.527 Y104.305 E7.6756
G1 X164.719 Y104.309 E7.7526
G1 X165.174 Y104.335 E7.7820
G1 X165.246 Y104.347 E7.7867
G1 X165.315 Y104.366 E7.7913
G1 X165.382 Y104.393 E7.7960
G1 X165.446 Y104.427 E7.8007
G1 X165.506 Y104.468 E7.8053
G1 X165.561 Y104.515 E7.8100
G1 X165.611 Y104.567 E7.8147
G1 X165.654 Y104.625 E7.8193
G1 X165.692 Y104.687 E7.8240
G1 X165.722 Y104.753 E7.8287
G1 X165.745 Y104.821 E7.8333
G1 X165.760 Y104.892 E7.8380
G1 X165.768 Y104.964 E7.8427
G1 X165.768 Y105.036 E7.8473
G1 X165.760 Y105.108 E7.8520
G1 X165.745 Y105.179 E7.8567
G1 X165.722 Y105.247 E7.8613
G1 X165.692 Y105.313 E7.8660
G1 X165.654 Y105.375 E7.8706
G1 X165.611 Y105.433 E7.8753
G1 X165.561 Y105.485 E7.8800
G1 X165.506 Y105.532 E7.8846
G1 X165.446 Y105.573 E7.8893
G1 X165.382 Y105.607 E7.8940
G1 X165.315 Y105.634 E7.8986
G1 X165.246 Y105.653 E7.9033
G1 X165.174 Y105.665 E7.9080
G1 X164.720 Y105.691 E7.9374
G1 X163.527 Y105.695 E8.0143
G1 X163.298 Y105.590 E8.0306
G1 X46.946 Y105.590 E15.5376
G1 X46.717 Y105.696 E15.5539
G1 X45.281 Y105.691 E15.6466
G1 X44.826 Y105.665 E15.6760
G1 X44.754 Y105.653 E15.6806
G1 X44.685 Y105.634 E15.6853
G1 X44.618 Y105.607 E15.6900
G1 X44.554 Y105.573 E15.6946
G1 X44.494 Y105.532 E15.6993
G1 X44.439 Y105.485 E15.7040
G1 X44.389 Y105.433 E15.7086
G1 X44.346 Y105.375 E15.7133
G1 X44.308 Y105.313 E15.7180
G1 X44.278 Y105.247 E15.7226
G1 X44.255 Y105.179 E15.7273
G1 X44.240 Y105.108 E15.7320
G1 X44.232 Y105.036 E15.7366
G1 X44.232 Y104.964 E15.7413
G1 X44.240 Y104.892 E15.7460
G1 X44.255 Y104.821 E15.7506
G1 X44.278 Y104.753 E15.7553
G1 X44.281 Y104.747 E15.7557
G1 X44.308 Y104.687 F420
G1 X44.346 Y104.625 F420
G1 X44.389 Y104.567 F420
G1 X44.439 Y104.515 F420
G1 X44.494 Y104.468 F420
G1 X44.554 Y104.427 F420
G1 X44.618 Y104.393 F420
G1 X44.685 Y104.366 F1200
G1 X44.754 Y104.347 F1200
G1 X44.826 Y104.335 F1200
G1 X45.281 Y104.309 F1200
G1 X46.727 Y104.304 F1200
G1 X46.958 Y104.410 F1200
G1 X47.156 Y104.410 F1200
; inner perimeter
G1 X44.203 Y103.503 F1200
G1 X44.369 Y103.437 E15.7672 F420
G1 X44.541 Y103.389 E15.7787
G1 X44.717 Y103.359 E15.7902
G1 X45.251 Y103.329 E15.8248
G1 X46.940 Y103.323 E15.9338
G1 X47.172 Y103.430 E15.9502
G1 X163.084 Y103.430 E23.4289
G1 X163.314 Y103.324 E23.4452
G1 X164.749 Y103.329 E23.5378
G1 X165.283 Y103.359 E23.5723
G1 X165.459 Y103.389 E23.5838
G1 X165.631 Y103.437 E23.5954
G1 X165.797 Y103.503 E23.6069
G1 X165.954 Y103.587 E23.6184
G1 X166.101 Y103.688 E23.6299
G1 X166.237 Y103.804 E23.6414
G1 X166.360 Y103.933 E23.6529
G1 X166.467 Y104.075 E23.6644
G1 X166.559 Y104.228 E23.6759
G1 X166.634 Y104.390 E23.6874
G1 X166.691 Y104.559 E23.6989
G1 X166.729 Y104.734 E23.7104
G1 X166.748 Y104.911 E23.7219
G1 X166.748 Y105.089 E23.7334
G1 X166.729 Y105.266 E23.7449
G1 X166.691 Y105.441 E23.7565
G1 X166.634 Y105.610 E23.7680
G1 X166.559 Y105.772 E23.7795
G1 X166.467 Y105.925 E23.7910
G1 X166.360 Y106.067 E23.8025
G1 X166.237 Y106.196 E23.8140
G1 X166.101 Y106.312 E23.8255
G1 X165.954 Y106.413 E23.8370
G1 X165.797 Y106.497 E23.8485
G1 X165.631 Y106.563 E23.8600
G1 X165.459 Y106.611 E23.8715
G1 X165.283 Y106.641 E23.8831
G1 X164.749 Y106.671 E23.9176
G1 X163.313 Y106.676 E24.0102
G1 X163.084 Y106.570 E24.0265
G1 X47.161 Y106.570 E31.5059
G1 X46.931 Y106.677 E31.5223
G1 X45.251 Y106.671 E31.6306
G1 X44.717 Y106.641 E31.6652
G1 X44.541 Y106.611 E31.6767
G1 X44.369 Y106.563 E31.6882
G1 X44.203 Y106.497 E31.6997
G1 X44.046 Y106.413 E31.7112
G1 X43.899 Y106.312 E31.7227
G1 X43.763 Y106.196 E31.7342
G1 X43.640 Y106.067 E31.7457
G1 X43.533 Y105.925 E31.7572
G1 X43.441 Y105.772 E31.7687
G1 X43.366 Y105.610 E31.7802
G1 X43.309 Y105.441 E31.7917
G1 X43.271 Y105.266 E31.8033
G1 X43.252 Y105.089 E31.8148
G1 X43.252 Y104.911 E31.8263
G1 X43.271 Y104.734 E31.8378
G1 X43.309 Y104.559 E31.8493
G1 X43.366 Y104.390 E31.8608
G1 X43.441 Y104.228 E31.8723
G1 X43.533 Y104.075 E31.8838
G1 X43.640 Y103.933 E31.8953
G1 X43.763 Y103.804 E31.9068
G1 X43.790 Y103.781 E31.9091
G1 X43.899 Y103.688 F420
G1 X44.046 Y103.587 F420
G1 X44.203 Y103.503 F420
G1 X44.369 Y103.437 F1200
G1 X44.541 Y103.389 F1200
G1 X44.717 Y103.359 F1200
G1 X45.251 Y103.329 F1200
G1 X46.752 Y103.324 F1200
; inner perimeter
G1 X43.789 Y102.614 F1200
G1 X44.053 Y102.508 E31.9274 F420
G1 X44.327 Y102.431 E31.9458
G1 X44.607 Y102.384 E31.9642
G1 X45.221 Y102.349 E32.0038
G1 X47.153 Y102.343 E32.1285
G1 X47.387 Y102.450 E32.1450
G1 X162.869 Y102.450 E39.5960
G1 X163.101 Y102.344 E39.6125
G1 X164.779 Y102.349 E39.7207
G1 X165.393 Y102.384 E39.7604
G1 X165.673 Y102.431 E39.7787
G1 X165.947 Y102.508 E39.7971
G1 X166.211 Y102.614 E39.8154
G1 X166.462 Y102.748 E39.8338
G1 X166.697 Y102.908 E39.8521
G1 X166.913 Y103.092 E39.8705
G1 X167.109 Y103.299 E39.8888
G1 X167.280 Y103.526 E39.9072
G1 X167.427 Y103.769 E39.9255
G1 X167.546 Y104.028 E39.9439
G1 X167.637 Y104.297 E39.9622
G1 X167.698 Y104.575 E39.9806
G1 X167.728 Y104.858 E39.9989
G1 X167.728 Y105.142 E40.0173
G1 X167.698 Y105.425 E40.0356
G1 X167.637 Y105.703 E40.0540
G1 X167.546 Y105.972 E40.0723
G1 X167.427 Y106.231 E40.0907
G1 X167.280 Y106.474 E40.1090
G1 X167.109 Y106.701 E40.1274
G1 X166.913 Y106.908 E40.1457
G1 X166.697 Y107.092 E40.1641
G1 X166.462 Y107.252 E40.1824
G1 X166.211 Y107.386 E40.2008
G1 X165.947 Y107.492 E40.2191
G1 X165.673 Y107.569 E40.2375
G1 X165.393 Y107.616 E40.2558
G1 X164.779 Y107.651 E40.2955
G1 X163.100 Y107.656 E40.4038
G1 X162.869 Y107.550 E40.4202
G1 X47.377 Y107.550 E47.8718
G1 X47.144 Y107.657 E47.8883
G1 X45.221 Y107.651 E48.0124
G1 X44.607 Y107.616 E48.0521
G1 X44.327 Y107.569 E48.0704
G1 X44.053 Y107.492 E48.0888
G1 X43.789 Y107.386 E48.1071
G1 X43.538 Y107.252 E48.1255
G1 X43.303 Y107.092 E48.1438
G1 X43.087 Y106.908 E48.1622
G1 X42.891 Y106.701 E48.1805
G1 X42.720 Y106.474 E48.1989
G1 X42.573 Y106.231 E48.2172
G1 X42.454 Y105.972 E48.2356
G1 X42.363 Y105.703 E48.2539
G1 X42.302 Y105.425 E48.2723
G1 X42.272 Y105.142 E48.2906
G1 X42.272 Y104.858 E48.3090
G1 X42.302 Y104.575 E48.3273
G1 X42.363 Y104.297 E48.3457
G1 X42.454 Y104.028 E48.3640
G1 X42.573 Y103.769 E48.3824
G1 X42.720 Y103.526 E48.4007
G1 X42.891 Y103.299 E48.4191
G1 X43.087 Y103.092 E48.4374
G1 X43.303 Y102.908 E48.4558
G1 X43.360 Y102.869 E48.4602
G1 X43.538 Y102.748 F420
G1 X43.789 Y102.614 F420
G1 X44.053 Y102.508 F1200
G1 X44.327 Y102.431 F1200
G1 X44.607 Y102.384 F1200
G1 X45.221 Y102.349 F1200
G1 X46.325 Y102.345 F1200
; inner perimeter
G1 X43.375 Y101.724 F1200
G1 X43.737 Y101.579 E48.4854 F420
G1 X44.113 Y101.473 E48.5106
G1 X44.498 Y101.409 E48.5358
G1 X45.192 Y101.369 E48.5806
G1 X47.366 Y101.362 E48.7209
G1 X47.601 Y101.470 E48.7376
G1 X162.655 Y101.470 E56.1609
G1 X162.888 Y101.363 E56.1774
G1 X164.808 Y101.369 E56.3013
G1 X165.502 Y101.409 E56.3461
G1 X165.887 Y101.473 E56.3713
G1 X166.263 Y101.579 E56.3965
G1 X166.625 Y101.724 E56.4217
G1 X166.970 Y101.908 E56.4469
G1 X167.292 Y102.127 E56.4721
G1 X167.590 Y102.381 E56.4973
G1 X167.857 Y102.665 E56.5225
G1 X168.093 Y102.976 E56.5477
G1 X168.294 Y103.311 E56.5729
G1 X168.458 Y103.665 E56.5981
G1 X168.582 Y104.035 E56.6232
G1 X168.666 Y104.417 E56.6484
G1 X168.708 Y104.805 E56.6736
G1 X168.708 Y105.195 E56.6988
G1 X168.666 Y105.583 E56.7240
G1 X168.582 Y105.965 E56.7492
G1 X168.458 Y106.335 E56.7744
G1 X168.294 Y106.689 E56.7996
G1 X168.093 Y107.024 E56.8248
G1 X167.857 Y107.335 E56.8500
G1 X167.590 Y107.619 E56.8752
G1 X167.292 Y107.873 E56.9004
G1 X166.970 Y108.092 E56.9255
G1 X166.625 Y108.276 E56.9507
G1 X166.263 Y108.421 E56.9759
G1 X165.887 Y108.527 E57.0011
G1 X165.502 Y108.591 E57.0263
G1 X164.808 Y108.631 E57.0711
G1 X162.887 Y108.637 E57.1951
G1 X162.655 Y108.530 E57.2116
G1 X47.592 Y108.530 E64.6355
G1 X47.358 Y108.638 E64.6521
G1 X45.192 Y108.631 E64.7918
G1 X44.498 Y108.591 E64.8367
G1 X44.113 Y108.527 E64.8619
G1 X43.737 Y108.421 E64.8871
G1 X43.375 Y108.276 E64.9122
G1 X43.030 Y108.092 E64.9374
G1 X42.708 Y107.872 E64.9626
G1 X42.410 Y107.619 E64.9878
G1 X42.143 Y107.335 E65.0130
G1 X41.907 Y107.024 E65.0382
G1 X41.706 Y106.689 E65.0634
G1 X41.542 Y106.335 E65.0886
G1 X41.418 Y105.965 E65.1138
G1 X41.334 Y105.583 E65.1390
G1 X41.292 Y105.195 E65.1642
G1 X41.292 Y104.805 E65.1894
G1 X41.334 Y104.417 E65.2145
G1 X41.418 Y104.035 E65.2397
G1 X41.542 Y103.665 E65.2649
G1 X41.706 Y103.311 E65.2901
G1 X41.907 Y102.976 E65.3153
G1 X42.143 Y102.665 E65.3405
G1 X42.410 Y102.381 E65.3657
G1 X42.708 Y102.127 E65.3909
G1 X42.940 Y101.969 E65.4090
G1 X43.030 Y101.908 F420
G1 X43.375 Y101.724 F420
G1 X43.737 Y101.579 F1200
G1 X44.113 Y101.473 F1200
G1 X44.498 Y101.409 F1200
G1 X45.192 Y101.369 F1200
G1 X45.897 Y101.367 F1200
; inner perimeter
G1 X42.961 Y100.834 F1200
G1 X43.421 Y100.649 E65.4410 F420
G1 X43.899 Y100.515 E65.4731
G1 X44.389 Y100.433 E65.5051
G1 X45.162 Y100.389 E65.5551
G1 X47.579 Y100.381 E65.7110
G1 X47.816 Y100.490 E65.7278
G1 X52.440 Y100.490 E66.0262
G1 X52.628 Y100.404 E66.0395
G1 X52.816 Y100.490 E66.0528
G1 X57.440 Y100.490 E66.3512
G1 X57.628 Y100.404 E66.3646
G1 X57.816 Y100.490 E66.3779
G1 X62.440 Y100.490 E66.6763
G1 X62.628 Y100.404 E66.6896
G1 X62.816 Y100.490 E66.7029
G1 X67.440 Y100.490 E67.0013
G1 X67.628 Y100.404 E67.0146
G1 X67.816 Y100.490 E67.0280
G1 X72.440 Y100.490 E67.3263
G1 X72.628 Y100.404 E67.3397
G1 X72.816 Y100.490 E67.3530
G1 X77.440 Y100.490 E67.6514
