;==SUMMARY==
;Used e_per_mm: 0.0873165396957
;Total line length: 87017.1552681
;Total extruded length: 7606.30166839

; G-Code generated by Simplify3D(R) Version 3.1.1
; Feb 18, 2017 at 2:12:22 PM
; Settings Summary
;   processName,1_solid
;   applyToModels,testbar01
;   profileName,fb_solid (modified)
;   profileVersion,2016-02-11 09:36:35
;   baseProfile,Ultimaker 1 (modified)
;   printMaterial,
;   printQuality,
;   printExtruders,
;   extruderName,Primary Extruder
;   extruderToolheadNumber,0
;   extruderDiameter,0.6
;   extruderAutoWidth,0
;   extruderWidth,0.7
;   extrusionMultiplier,1
;   extruderUseRetract,0
;   extruderRetractionDistance,4.5
;   extruderExtraRestartDistance,0
;   extruderRetractionZLift,0
;   extruderRetractionSpeed,2100
;   extruderUseCoasting,1
;   extruderCoastingDistance,0.5
;   extruderUseWipe,1
;   extruderWipeDistance,1
;   primaryExtruder,0
;   layerHeight,0.3
;   topSolidLayers,6
;   bottomSolidLayers,6
;   perimeterOutlines,30
;   printPerimetersInsideOut,1
;   startPointOption,2
;   startPointOriginX,0
;   startPointOriginY,0
;   startPointOriginZ,300
;   sequentialIslands,1
;   spiralVaseMode,0
;   firstLayerHeightPercentage,100
;   firstLayerWidthPercentage,100
;   firstLayerUnderspeed,1
;   useRaft,0
;   raftExtruder,0
;   raftLayers,3
;   raftOffset,3
;   raftSeparationDistance,0.14
;   raftInfill,85
;   disableRaftBaseLayers,0
;   useSkirt,0
;   skirtExtruder,0
;   skirtLayers,1
;   skirtOutlines,5
;   skirtOffset,0
;   usePrimePillar,0
;   primePillarExtruder,999
;   primePillarWidth,12
;   primePillarLocation,7
;   primePillarSpeedMultiplier,1
;   useOozeShield,0
;   oozeShieldExtruder,999
;   oozeShieldOffset,2
;   oozeShieldOutlines,1
;   oozeShieldSidewallShape,1
;   oozeShieldSidewallAngle,30
;   oozeShieldSpeedMultiplier,1
;   infillExtruder,0
;   internalInfillPattern,Rectilinear
;   externalInfillPattern,Rectilinear
;   infillPercentage,20
;   outlineOverlapPercentage,25
;   infillExtrusionWidthPercentage,100
;   minInfillLength,1
;   infillLayerInterval,1
;   infillAngles,45,-45
;   overlapInfillAngles,0
;   generateSupport,0
;   supportExtruder,0
;   supportInfillPercentage,25
;   supportExtraInflation,0
;   denseSupportLayers,0
;   denseSupportInfillPercentage,70
;   supportLayerInterval,1
;   supportHorizontalPartOffset,0.3
;   supportUpperSeparationLayers,1
;   supportLowerSeparationLayers,1
;   supportType,0
;   supportGridSpacing,4
;   maxOverhangAngle,45
;   supportAngles,45,-45
;   temperatureName,Primary Extruder,Bed
;   temperatureNumber,0,2
;   temperatureSetpointCount,1,1
;   temperatureSetpointLayers,1,1
;   temperatureSetpointTemperatures,210,60
;   temperatureStabilizeAtStartup,1,1
;   temperatureHeatedBed,0,1
;   temperatureRelayBetweenLayers,0,0
;   temperatureRelayBetweenLoops,0,0
;   fanLayers,1,6,16
;   fanSpeeds,0,50,80
;   blipFanToFullPower,0
;   adjustSpeedForCooling,1
;   minSpeedLayerTime,5
;   minCoolingSpeedSlowdown,40
;   increaseFanForCooling,1
;   minFanLayerTime,7
;   maxCoolingFanSpeed,100
;   increaseFanForBridging,1
;   bridgingFanSpeed,100
;   use5D,1
;   relativeEdistances,0
;   allowEaxisZeroing,0
;   independentExtruderAxes,0
;   includeM10123,0
;   stickySupport,1
;   applyToolheadOffsets,0
;   gcodeXoffset,0
;   gcodeYoffset,0
;   gcodeZoffset,0
;   overrideMachineDefinition,1
;   machineTypeOverride,0
;   strokeXoverride,210
;   strokeYoverride,210
;   strokeZoverride,205
;   originOffsetXoverride,0
;   originOffsetYoverride,0
;   originOffsetZoverride,0
;   homeXdirOverride,-1
;   homeYdirOverride,-1
;   homeZdirOverride,-1
;   flipXoverride,1
;   flipYoverride,-1
;   flipZoverride,1
;   toolheadOffsets,0,0|0,0|0,0|0,0|0,0|0,0
;   overrideFirmwareConfiguration,1
;   firmwareTypeOverride,RepRap (Marlin/Repetier/Sprinter)
;   GPXconfigOverride,r2
;   baudRateOverride,250000
;   overridePrinterModels,1
;   printerModelsOverride
;   startingGcode,G28 X0 Y0 ;move XY to min endstop,G28 Z0 ;move Z to min endstops,G1 Z15.0 F1000 ;move the platform down 15mm,G92 E0                  ;zero the extruded length,G1 F200 E9              ;extrude 9mm of feed stock,G92 E0                  ;zero the extruded length again,G1 Y160 F500 ;move away from bed clip
;   layerChangeGcode,
;   retractionGcode,
;   toolChangeGcode,
;   endingGcode,;End GCode,;G91                                    ;relative positioning,;G1 E-1 F300                            ;retract the filament a bit before lifting the nozzle to release some of the pressure,;G1 Z+15 E-2 X-20 Y-20 F3000 ;move Z up a bit and retract filament even more,G28 X0                              ;move X to min endstops so the head is out of the way,M140 S0                     ;heated bed heater off (if you have it),M104 S0		;extruder heater off,M107		; fans off,M84                         ;steppers off,
;   exportFileFormat,gcode
;   celebration,0
;   celebrationSong,Random Song
;   postProcessing,
;   defaultSpeed,1200
;   outlineUnderspeed,1
;   solidInfillUnderspeed,1
;   supportUnderspeed,0.8
;   rapidXYspeed,1200
;   rapidZspeed,1500
;   minBridgingArea,1
;   bridgingExtraInflation,0.2
;   bridgingExtrusionMultiplier,1.1
;   bridgingSpeedMultiplier,0.5
;   filamentDiameter,1.75
;   filamentPricePerKg,46
;   filamentDensity,1.25
;   useMinPrintHeight,0
;   minPrintHeight,0
;   useMaxPrintHeight,1
;   maxPrintHeight,1.5
;   useDiaphragm,0
;   diaphragmLayerInterval,20
;   robustSlicing,1
;   mergeAllIntoSolid,0
;   onlyRetractWhenCrossingOutline,1
;   retractBetweenLayers,0
;   useRetractionMinTravel,1
;   retractionMinTravel,0.5
;   retractWhileWiping,1
;   onlyWipeOutlines,0
;   avoidCrossingOutline,0
;   maxMovementDetourFactor,1
;   toolChangeRetractionDistance,12
;   toolChangeExtraRestartDistance,-0.5
;   toolChangeRetractionSpeed,600
;   allowThinWallGapFill,1
;   thinWallAllowedOverlapPercentage,25
;   horizontalSizeCompensation,0
G90
M82
M106 S0
M140 S60
M190 S60
M104 S210 T0
M109 S210 T0
G28 X0 Y0 ;move XY to min endstop
G28 Z0 ;move Z to min endstops
G1 F1000 Z15.0 E1.30975
G92 E0.00000
G92 E0                  ;zero the extruded length

G1 F200 E9.00000
G92 E0                  ;zero the extruded length again

G1 F500 Y160.0 E13.97065
G92 E0.00000
G1 F2100 
G1 F1500 Z0.3 E-3.21645
G92 E-4.50000
; layer 1, Z = 0.3
T0
; tool H0.300 W0.700
; inner perimeter
; inner perimeter
; inner perimeter
; inner perimeter
; inner perimeter
; inner perimeter
; inner perimeter
; inner perimeter
; inner perimeter
; inner perimeter
G1 F1200 X44.677 Y104.52 E1.71977
G92 E-4.50000
G1 F630 E0.00000
G1 F1200 X44.73 Y104.499 E0.00500
G1 X44.785 Y104.484 E0.01000
G1 X44.841 Y104.474 E0.01500
G1 X45.285 Y104.449 E0.05380
G1 X46.726 Y104.444 E0.17960
G1 X46.958 Y104.55 E0.20190
G1 X163.329 Y104.55 E10.36190
G1 X163.557 Y104.445 E10.38390
G1 X164.715 Y104.449 E10.48500
G1 X165.159 Y104.474 E10.52380
G1 X165.215 Y104.484 E10.52880
G1 X165.27 Y104.499 E10.53380
G1 X165.323 Y104.52 E10.53880
G1 X165.374 Y104.547 E10.54370
G1 X165.421 Y104.579 E10.54870
G1 X165.464 Y104.617 E10.55370
G1 X165.504 Y104.658 E10.55870
G1 X165.538 Y104.704 E10.56370
G1 X165.568 Y104.753 E10.56870
G1 X165.592 Y104.805 E10.57370
G1 X165.61 Y104.859 E10.57870
G1 X165.622 Y104.915 E10.58370
G1 X165.628 Y104.971 E10.58870
G1 X165.628 Y105.029 E10.59370
G1 X165.622 Y105.085 E10.59860
G1 X165.61 Y105.141 E10.60360
G1 X165.592 Y105.195 E10.60860
G1 X165.568 Y105.247 E10.61360
G1 X165.538 Y105.296 E10.61860
G1 X165.504 Y105.342 E10.62360
G1 X165.464 Y105.383 E10.62860
G1 X165.421 Y105.421 E10.63360
G1 X165.374 Y105.453 E10.63860
G1 X165.323 Y105.48 E10.64360
G1 X165.27 Y105.501 E10.64860
G1 X165.215 Y105.516 E10.65360
G1 X165.159 Y105.526 E10.65850
G1 X164.715 Y105.551 E10.69730
G1 X163.528 Y105.555 E10.80100
G1 X163.297 Y105.45 E10.82310
G1 X46.918 Y105.45 E20.98390
G1 X46.689 Y105.556 E21.00600
G1 X45.285 Y105.551 E21.12850
G1 X44.841 Y105.526 E21.16730
G1 X44.785 Y105.516 E21.17230
G1 X44.73 Y105.501 E21.17730
G1 X44.677 Y105.48 E21.18230
G1 X44.626 Y105.453 E21.18730
G1 X44.579 Y105.421 E21.19230
G1 X44.536 Y105.383 E21.19730
G1 X44.496 Y105.342 E21.20230
G1 X44.462 Y105.296 E21.20730
G1 X44.432 Y105.247 E21.21230
G1 X44.408 Y105.195 E21.21730
G1 X44.39 Y105.141 E21.22230
G1 X44.378 Y105.085 E21.22730
G1 X44.372 Y105.029 E21.23220
G1 X44.372 Y104.971 E21.23720
G1 X44.378 Y104.915 E21.24220
G1 X44.381 Y104.9 E21.24350
G1 F1200 X44.39 Y104.859 E21.24717
G92 E21.24350
G1 F1200 X44.408 Y104.805 E21.24847
G92 E21.24350
G1 F1200 X44.432 Y104.753 E21.24850
G92 E21.24350
G1 F1200 X44.462 Y104.704 E21.24852
G92 E21.24350
G1 F1200 X44.496 Y104.658 E21.24849
G92 E21.24350
G1 F1200 X44.536 Y104.617 E21.24850
G92 E21.24350
G1 F1200 X44.579 Y104.579 E21.24851
G92 E21.24350
G1 F1200 X44.626 Y104.547 E21.24846
G92 E21.24350
G1 F1200 X44.677 Y104.52 E21.24854
G92 E21.24350
G1 F1200 X44.73 Y104.499 E21.24848
G92 E21.24350
G1 F1200 X44.785 Y104.484 E21.24848
G92 E21.24350
G1 F1200 X44.841 Y104.474 E21.24847
G92 E21.24350
G1 F1200 X45.285 Y104.449 E21.28233
G92 E21.24350
G1 F1200 X46.726 Y104.444 E21.36932
G92 E21.24350
G1 F1200 X46.958 Y104.55 E21.26577
G92 E21.24350
G1 F1200 X47.217 Y104.55 E21.26611
G92 E21.24350
; inner perimeter
G1 F1200 X44.381 Y103.885 E21.49785
G92 E21.24350
G1 F1200 X44.504 Y103.835 E21.25510
G1 X44.632 Y103.799 E21.26670
G1 X44.763 Y103.778 E21.27830
G1 X45.264 Y103.749 E21.32210
G1 X46.876 Y103.744 E21.46290
G1 X47.11 Y103.85 E21.48530
G1 X163.176 Y103.85 E31.61870
G1 X163.405 Y103.744 E31.64080
G1 X164.736 Y103.749 E31.75690
G1 X165.237 Y103.778 E31.80080
G1 X165.368 Y103.799 E31.81230
G1 X165.496 Y103.835 E31.82400
G1 X165.619 Y103.885 E31.83560
G1 X165.736 Y103.947 E31.84720
G1 X165.846 Y104.022 E31.85880
G1 X165.947 Y104.108 E31.87040
G1 X166.039 Y104.205 E31.88200
G1 X166.119 Y104.311 E31.89360
G1 X166.187 Y104.425 E31.90520
G1 X166.243 Y104.546 E31.91680
G1 X166.285 Y104.672 E31.92840
G1 X166.314 Y104.801 E31.94000
G1 X166.328 Y104.934 E31.95160
G1 X166.328 Y105.066 E31.96320
G1 X166.314 Y105.199 E31.97480
G1 X166.285 Y105.328 E31.98640
G1 X166.243 Y105.454 E31.99800
G1 X166.187 Y105.575 E32.00960
G1 X166.119 Y105.689 E32.02120
G1 X166.039 Y105.795 E32.03280
G1 X165.947 Y105.892 E32.04440
G1 X165.846 Y105.978 E32.05600
G1 X165.736 Y106.053 E32.06760
G1 X165.619 Y106.115 E32.07920
G1 X165.496 Y106.165 E32.09090
G1 X165.368 Y106.201 E32.10250
G1 X165.237 Y106.222 E32.11410
G1 X164.736 Y106.251 E32.15780
G1 X163.377 Y106.255 E32.27650
G1 X163.145 Y106.15 E32.29870
G1 X47.072 Y106.15 E42.43280
G1 X46.842 Y106.256 E42.45500
G1 X45.264 Y106.251 E42.59270
G1 X44.763 Y106.222 E42.63650
G1 X44.632 Y106.201 E42.64810
G1 X44.504 Y106.165 E42.65970
G1 X44.381 Y106.115 E42.67130
G1 X44.264 Y106.053 E42.68290
G1 X44.154 Y105.978 E42.69450
G1 X44.053 Y105.892 E42.70610
G1 X43.961 Y105.795 E42.71770
G1 X43.881 Y105.689 E42.72940
G1 X43.813 Y105.575 E42.74100
G1 X43.757 Y105.454 E42.75260
G1 X43.715 Y105.328 E42.76420
G1 X43.686 Y105.199 E42.77580
G1 X43.672 Y105.066 E42.78740
G1 X43.672 Y104.934 E42.79900
G1 X43.686 Y104.801 E42.81060
G1 X43.715 Y104.672 E42.82220
G1 X43.757 Y104.546 E42.83380
G1 X43.813 Y104.425 E42.84540
G1 X43.881 Y104.311 E42.85700
G1 X43.961 Y104.205 E42.86860
G1 X43.983 Y104.182 E42.87140
G1 F1200 X44.053 Y104.108 E42.88029
G92 E42.87140
G1 F1200 X44.154 Y104.022 E42.88298
G92 E42.87140
G1 F1200 X44.264 Y103.947 E42.88302
G92 E42.87140
G1 F1200 X44.381 Y103.885 E42.88296
G92 E42.87140
G1 F1200 X44.504 Y103.835 E42.88299
G92 E42.87140
G1 F1200 X44.632 Y103.799 E42.88301
G92 E42.87140
G1 F1200 X44.763 Y103.778 E42.88298
G92 E42.87140
G1 F1200 X45.264 Y103.749 E42.91522
G92 E42.87140
G1 F1200 X46.876 Y103.744 E43.01215
G92 E42.87140
G1 F1200 X46.93 Y103.768 E42.87656
G92 E42.87140
; inner perimeter
G1 F1200 X44.085 Y103.249 E43.12392
G92 E42.87140
G1 F1200 X44.279 Y103.172 E42.88960
G1 X44.479 Y103.115 E42.90780
G1 X44.685 Y103.081 E42.92600
G1 X45.243 Y103.049 E42.97480
G1 X47.027 Y103.043 E43.13060
G1 X47.262 Y103.15 E43.15310
G1 X163.022 Y103.15 E53.25990
G1 X163.253 Y103.044 E53.28200
G1 X164.757 Y103.049 E53.41340
G1 X165.315 Y103.081 E53.46210
G1 X165.52 Y103.115 E53.48030
G1 X165.721 Y103.172 E53.49860
G1 X165.915 Y103.249 E53.51680
G1 X166.099 Y103.347 E53.53500
G1 X166.272 Y103.465 E53.55320
G1 X166.43 Y103.6 E53.57140
G1 X166.574 Y103.752 E53.58960
G1 X166.7 Y103.918 E53.60790
G1 X166.807 Y104.097 E53.62610
G1 X166.894 Y104.287 E53.64430
G1 X166.961 Y104.484 E53.66250
G1 X167.006 Y104.688 E53.68070
G1 X167.028 Y104.896 E53.69900
G1 X167.028 Y105.104 E53.71720
G1 X167.006 Y105.312 E53.73540
G1 X166.961 Y105.516 E53.75360
G1 X166.894 Y105.713 E53.77180
G1 X166.807 Y105.903 E53.79000
G1 X166.7 Y106.082 E53.80820
G1 X166.574 Y106.248 E53.82650
G1 X166.43 Y106.4 E53.84470
G1 X166.272 Y106.535 E53.86290
G1 X166.099 Y106.653 E53.88110
G1 X165.915 Y106.751 E53.89930
G1 X165.721 Y106.828 E53.91750
G1 X165.52 Y106.885 E53.93580
G1 X165.315 Y106.919 E53.95400
G1 X164.758 Y106.951 E54.00270
G1 X163.226 Y106.956 E54.13640
G1 X162.994 Y106.85 E54.15870
G1 X47.226 Y106.85 E64.26620
G1 X46.994 Y106.957 E64.28840
G1 X45.243 Y106.951 E64.44130
G1 X44.685 Y106.919 E64.49010
G1 X44.479 Y106.885 E64.50830
G1 X44.279 Y106.828 E64.52650
G1 X44.085 Y106.751 E64.54470
G1 X43.901 Y106.653 E64.56300
G1 X43.728 Y106.535 E64.58120
G1 X43.57 Y106.4 E64.59940
G1 X43.426 Y106.248 E64.61760
G1 X43.3 Y106.082 E64.63580
G1 X43.193 Y105.903 E64.65400
G1 X43.106 Y105.713 E64.67230
G1 X43.039 Y105.516 E64.69050
G1 X42.994 Y105.312 E64.70870
G1 X42.972 Y105.104 E64.72690
G1 X42.972 Y104.896 E64.74510
G1 X42.994 Y104.688 E64.76330
G1 X43.039 Y104.484 E64.78160
G1 X43.106 Y104.287 E64.79980
G1 X43.193 Y104.097 E64.81800
G1 X43.3 Y103.918 E64.83620
G1 X43.426 Y103.752 E64.85440
G1 X43.57 Y103.6 E64.87270
G1 X43.665 Y103.519 E64.88360
G1 F1200 X43.728 Y103.465 E64.89085
G92 E64.88360
G1 F1200 X43.901 Y103.347 E64.90189
G92 E64.88360
G1 F1200 X44.085 Y103.249 E64.90180
G92 E64.88360
G1 F1200 X44.279 Y103.172 E64.90182
G92 E64.88360
G1 F1200 X44.479 Y103.115 E64.90176
G92 E64.88360
G1 F1200 X44.685 Y103.081 E64.90183
G92 E64.88360
G1 F1200 X45.243 Y103.049 E64.93240
G92 E64.88360
G1 F1200 X46.63 Y103.044 E65.00471
G92 E64.88360
; inner perimeter
G1 F1200 X43.789 Y102.614 E65.13449
G92 E64.88360
G1 F1200 X44.053 Y102.508 E64.90850
G1 X44.327 Y102.431 E64.93330
G1 X44.607 Y102.384 E64.95810
G1 X45.222 Y102.349 E65.01190
G1 X47.178 Y102.343 E65.18270
G1 X47.414 Y102.45 E65.20530
G1 X162.869 Y102.45 E75.28540
G1 X163.101 Y102.344 E75.30770
G1 X164.778 Y102.349 E75.45420
G1 X165.393 Y102.384 E75.50790
G1 X165.673 Y102.431 E75.53270
G1 X165.947 Y102.508 E75.55750
G1 X166.211 Y102.614 E75.58240
G1 X166.462 Y102.748 E75.60720
G1 X166.697 Y102.908 E75.63200
G1 X166.913 Y103.092 E75.65690
G1 X167.109 Y103.299 E75.68170
G1 X167.28 Y103.526 E75.70650
G1 X167.427 Y103.769 E75.73140
G1 X167.546 Y104.028 E75.75620
G1 X167.637 Y104.297 E75.78100
G1 X167.698 Y104.575 E75.80590
G1 X167.728 Y104.858 E75.83070
G1 X167.728 Y105.142 E75.85550
G1 X167.698 Y105.425 E75.88030
G1 X167.637 Y105.703 E75.90520
G1 X167.546 Y105.972 E75.93000
G1 X167.427 Y106.231 E75.95480
G1 X167.28 Y106.474 E75.97970
G1 X167.109 Y106.701 E76.00450
G1 X166.913 Y106.908 E76.02930
G1 X166.697 Y107.092 E76.05420
G1 X166.462 Y107.252 E76.07900
G1 X166.211 Y107.386 E76.10380
G1 X165.947 Y107.492 E76.12860
G1 X165.673 Y107.569 E76.15350
G1 X165.393 Y107.616 E76.17830
G1 X164.779 Y107.651 E76.23200
G1 X163.076 Y107.656 E76.38070
G1 X162.842 Y107.55 E76.40310
G1 X47.379 Y107.55 E86.48390
G1 X47.147 Y107.657 E86.50630
G1 X45.222 Y107.651 E86.67430
G1 X44.607 Y107.616 E86.72810
G1 X44.327 Y107.569 E86.75290
G1 X44.053 Y107.492 E86.77770
G1 X43.789 Y107.386 E86.80260
G1 X43.538 Y107.252 E86.82740
G1 X43.303 Y107.092 E86.85220
G1 X43.087 Y106.908 E86.87700
G1 X42.891 Y106.701 E86.90190
G1 X42.72 Y106.474 E86.92670
G1 X42.573 Y106.231 E86.95150
G1 X42.454 Y105.972 E86.97640
G1 X42.363 Y105.703 E87.00120
G1 X42.302 Y105.425 E87.02600
G1 X42.272 Y105.142 E87.05090
